X:182 
T:Road to Clonmel (reel), The  
S:Donnelly < W.Jones 
F:file ID: cre.4/182road_c
B:CRE4.180 (Bothar Chluain Meala)
L:1/8
Q:180
M:4/4
R:reel
K:D
[BB,]|[AA,]D~D2 FDAD|GFED CEAG|FD~D2 FGAB|cAGE FDD[FB,]|
[AA,]D~D2 FDAD|GFED CEAG|FD~D2 FGAB|cAGE FDD ||
B|Ad~d2 fd~d2|Ad~d2 cAGc|Adcd fded|cAGE FD D2|
Ad~d2 fd~d2|Ad~d2 cAGE|DEFG AddB|cAGE FDD2|]

%%%

